icons/modern/palm-down-hand-light.svg

<svg width="32" height="32" viewBox="0 0 32 32" fill="none" xmlns="http://www.w3.org/2000/svg">
<path d="M15.1162 17.8284C13.9385 17.6069 13.1587 16.4639 13.3783 15.276L14.3173 10.155L18.5857 10.9545L17.6435 16.0754C17.4271 17.2634 16.2939 18.05 15.1162 17.8284Z" fill="url(#paint0_radial_20020_6772)"/>
<path d="M15.1162 17.8284C13.9385 17.6069 13.1587 16.4639 13.3783 15.276L14.3173 10.155L18.5857 10.9545L17.6435 16.0754C17.4271 17.2634 16.2939 18.05 15.1162 17.8284Z" fill="url(#paint1_linear_20020_6772)"/>
<path d="M15.1162 17.8284C13.9385 17.6069 13.1587 16.4639 13.3783 15.276L14.3173 10.155L18.5857 10.9545L17.6435 16.0754C17.4271 17.2634 16.2939 18.05 15.1162 17.8284Z" fill="url(#paint2_radial_20020_6772)"/>
<path d="M15.1162 17.8284C13.9385 17.6069 13.1587 16.4639 13.3783 15.276L14.3173 10.155L18.5857 10.9545L17.6435 16.0754C17.4271 17.2634 16.2939 18.05 15.1162 17.8284Z" fill="url(#paint3_linear_20020_6772)"/>
<path d="M18.8746 19.8836C17.6706 19.7616 16.7941 18.6892 16.9129 17.4852L17.433 12.3L21.7898 12.7367L21.2697 17.9219C21.1509 19.1259 20.0786 20.0056 18.8746 19.8836Z" fill="url(#paint4_radial_20020_6772)"/>
<path d="M18.8746 19.8836C17.6706 19.7616 16.7941 18.6892 16.9129 17.4852L17.433 12.3L21.7898 12.7367L21.2697 17.9219C21.1509 19.1259 20.0786 20.0056 18.8746 19.8836Z" fill="url(#paint5_radial_20020_6772)"/>
<path d="M18.8746 19.8836C17.6706 19.7616 16.7941 18.6892 16.9129 17.4852L17.433 12.3L21.7898 12.7367L21.2697 17.9219C21.1509 19.1259 20.0786 20.0056 18.8746 19.8836Z" fill="url(#paint6_radial_20020_6772)"/>
<path d="M18.8746 19.8836C17.6706 19.7616 16.7941 18.6892 16.9129 17.4852L17.433 12.3L21.7898 12.7367L21.2697 17.9219C21.1509 19.1259 20.0786 20.0056 18.8746 19.8836Z" fill="url(#paint7_linear_20020_6772)"/>
<path d="M24.0341 20.5959C22.8462 20.8174 21.7032 20.0308 21.4816 18.8428L20.3551 12.8313L24.8336 12.9192L25.7871 18.0434C26.0055 19.2313 25.2221 20.3743 24.0341 20.5959Z" fill="url(#paint8_radial_20020_6772)"/>
<path d="M24.0341 20.5959C22.8462 20.8174 21.7032 20.0308 21.4816 18.8428L20.3551 12.8313L24.8336 12.9192L25.7871 18.0434C26.0055 19.2313 25.2221 20.3743 24.0341 20.5959Z" fill="url(#paint9_radial_20020_6772)"/>
<g filter="url(#filter0_iii_20020_6772)">
<path d="M12.7657 16.7307C12.7657 15.0291 13.6525 14.1556 15.1642 13.6517C16.1407 13.4407 19.6954 13.5032 19.6954 13.5032C20.8282 13.5032 21.4748 13.9511 22.1329 14.5579L25.8907 17.7688C26.8751 18.6751 28.3748 18.8872 29.3829 17.847C30.436 16.7618 30.3204 15.1126 29.0392 14.0032L23.2736 9.01556C21.9732 7.84688 21.3517 7.19833 18.9645 7.19833L9.99231 7.19833C5.16351 7.16943 2.2146 10.1282 2.2146 14.0032C2.2146 16.347 4.29733 18.8103 5.89856 20.472L7.61731 22.1053C8.97862 23.3125 10.7501 24.3313 12.5939 24.3313H14.422C15.0128 24.3313 15.4744 24.2727 16.2111 24.7141C17.1165 25.2567 18.5411 25.1341 19.2892 24.386C19.9409 23.7343 20.1396 22.799 19.7929 21.9418C19.1917 20.4449 17.5314 19.8157 15.9142 19.5032L14.7892 19.347C13.3439 19.2454 12.7657 17.6126 12.7657 16.7307Z" fill="url(#paint10_linear_20020_6772)"/>
</g>
<path d="M12.7657 16.7307C12.7657 15.0291 13.6525 14.1556 15.1642 13.6517C16.1407 13.4407 19.6954 13.5032 19.6954 13.5032C20.8282 13.5032 21.4748 13.9511 22.1329 14.5579L25.8907 17.7688C26.8751 18.6751 28.3748 18.8872 29.3829 17.847C30.436 16.7618 30.3204 15.1126 29.0392 14.0032L23.2736 9.01556C21.9732 7.84688 21.3517 7.19833 18.9645 7.19833L9.99231 7.19833C5.16351 7.16943 2.2146 10.1282 2.2146 14.0032C2.2146 16.347 4.29733 18.8103 5.89856 20.472L7.61731 22.1053C8.97862 23.3125 10.7501 24.3313 12.5939 24.3313H14.422C15.0128 24.3313 15.4744 24.2727 16.2111 24.7141C17.1165 25.2567 18.5411 25.1341 19.2892 24.386C19.9409 23.7343 20.1396 22.799 19.7929 21.9418C19.1917 20.4449 17.5314 19.8157 15.9142 19.5032L14.7892 19.347C13.3439 19.2454 12.7657 17.6126 12.7657 16.7307Z" fill="url(#paint11_radial_20020_6772)"/>
<g filter="url(#filter1_f_20020_6772)">
<path d="M21.8356 10.0247L28.2437 15.0719C28.611 15.3612 28.6629 15.8984 28.3578 16.2527C28.0782 16.5774 27.5959 16.6325 27.2502 16.3792L21.3331 12.0425C20.923 11.742 20.4138 11.6089 19.9091 11.6703L15.2641 12.2357C13.2567 12.4801 11.7474 14.1842 11.7474 16.2064V16.7674C11.7474 17.7213 12.0883 18.6438 12.7086 19.3684L12.815 19.4928C13.3097 20.0707 14.0055 20.4392 14.7616 20.5235L16.5326 20.721C17.1796 20.7931 17.7856 21.0738 18.2591 21.5206L19.048 22.2651C19.324 22.5255 19.3343 22.961 19.0709 23.2342C18.8227 23.4916 18.4177 23.5134 18.1432 23.2842L17.7519 22.9575C17.2124 22.5069 16.5319 22.2601 15.8289 22.2601H13.8272C12.8162 22.2601 11.8427 21.8773 11.1025 21.1886L7.53975 17.8739C6.49043 16.8976 6.04364 15.4346 6.36853 14.0386L6.54808 13.2672C7.06266 11.0562 9.00214 9.46939 11.2712 9.40279L19.2432 9.16882C20.181 9.1413 21.0986 9.44426 21.8356 10.0247Z" fill="#FFE5CB"/>
</g>
<defs>
<filter id="filter0_iii_20020_6772" x="2.2146" y="5.94812" width="29.1303" height="19.2507" filterUnits="userSpaceOnUse" color-interpolation-filters="sRGB">
<feFlood flood-opacity="0" result="BackgroundImageFix"/>
<feBlend mode="normal" in="SourceGraphic" in2="BackgroundImageFix" result="shape"/>
<feColorMatrix in="SourceAlpha" type="matrix" values="0 0 0 0 0 0 0 0 0 0 0 0 0 0 0 0 0 0 127 0" result="hardAlpha"/>
<feOffset dx="1.25" dy="-1.25"/>
<feGaussianBlur stdDeviation="0.75"/>
<feComposite in2="hardAlpha" operator="arithmetic" k2="-1" k3="1"/>
<feColorMatrix type="matrix" values="0 0 0 0 0.870588 0 0 0 0 0.639216 0 0 0 0 0.615686 0 0 0 1 0"/>
<feBlend mode="normal" in2="shape" result="effect1_innerShadow_20020_6772"/>
<feColorMatrix in="SourceAlpha" type="matrix" values="0 0 0 0 0 0 0 0 0 0 0 0 0 0 0 0 0 0 127 0" result="hardAlpha"/>
<feOffset dy="-0.4"/>
<feGaussianBlur stdDeviation="0.625"/>
<feComposite in2="hardAlpha" operator="arithmetic" k2="-1" k3="1"/>
<feColorMatrix type="matrix" values="0 0 0 0 0.701961 0 0 0 0 0.458824 0 0 0 0 0.521569 0 0 0 1 0"/>
<feBlend mode="normal" in2="effect1_innerShadow_20020_6772" result="effect2_innerShadow_20020_6772"/>
<feColorMatrix in="SourceAlpha" type="matrix" values="0 0 0 0 0 0 0 0 0 0 0 0 0 0 0 0 0 0 127 0" result="hardAlpha"/>
<feOffset dx="0.15" dy="0.15"/>
<feGaussianBlur stdDeviation="0.25"/>
<feComposite in2="hardAlpha" operator="arithmetic" k2="-1" k3="1"/>
<feColorMatrix type="matrix" values="0 0 0 0 0.878431 0 0 0 0 0.717647 0 0 0 0 0.615686 0 0 0 1 0"/>
<feBlend mode="normal" in2="effect2_innerShadow_20020_6772" result="effect3_innerShadow_20020_6772"/>
</filter>
<filter id="filter1_f_20020_6772" x="3.76428" y="6.66711" width="27.2924" height="19.2756" filterUnits="userSpaceOnUse" color-interpolation-filters="sRGB">
<feFlood flood-opacity="0" result="BackgroundImageFix"/>
<feBlend mode="normal" in="SourceGraphic" in2="BackgroundImageFix" result="shape"/>
<feGaussianBlur stdDeviation="1.25" result="effect1_foregroundBlur_20020_6772"/>
</filter>
<radialGradient id="paint0_radial_20020_6772" cx="0" cy="0" r="1" gradientUnits="userSpaceOnUse" gradientTransform="translate(15.3772 16.8342) rotate(-72.9574) scale(3.96133 3.0891)">
<stop stop-color="#BC7C7C"/>
<stop offset="1" stop-color="#B26B63"/>
</radialGradient>
<linearGradient id="paint1_linear_20020_6772" x1="17.2546" y1="17.5318" x2="15.9633" y2="17.4231" gradientUnits="userSpaceOnUse">
<stop stop-color="#AD685D"/>
<stop offset="1" stop-color="#AD685D" stop-opacity="0"/>
</linearGradient>
<radialGradient id="paint2_radial_20020_6772" cx="0" cy="0" r="1" gradientUnits="userSpaceOnUse" gradientTransform="translate(15.2126 13.6125) rotate(80.9581) scale(4.77812 3.99542)">
<stop offset="0.68995" stop-color="#B7798C" stop-opacity="0"/>
<stop offset="0.909009" stop-color="#B7798C"/>
</radialGradient>
<linearGradient id="paint3_linear_20020_6772" x1="13.24" y1="15.3064" x2="14.1589" y2="15.4808" gradientUnits="userSpaceOnUse">
<stop stop-color="#D59381"/>
<stop offset="1" stop-color="#D59381" stop-opacity="0"/>
</linearGradient>
<radialGradient id="paint4_radial_20020_6772" cx="0" cy="0" r="1" gradientUnits="userSpaceOnUse" gradientTransform="translate(18.9037 19.8949) rotate(-82.9416) scale(8.25115 2.21235)">
<stop stop-color="#D79F98"/>
<stop offset="1" stop-color="#C78980"/>
</radialGradient>
<radialGradient id="paint5_radial_20020_6772" cx="0" cy="0" r="1" gradientUnits="userSpaceOnUse" gradientTransform="translate(19.8551 13.2688) rotate(96.8313) scale(6.87836 5.87923)">
<stop offset="0.825321" stop-color="#B57B8F" stop-opacity="0"/>
<stop offset="0.965343" stop-color="#B57B8F"/>
</radialGradient>
<radialGradient id="paint6_radial_20020_6772" cx="0" cy="0" r="1" gradientUnits="userSpaceOnUse" gradientTransform="translate(16.3749 19.3207) rotate(-56.0919) scale(7.22011 7.09831)">
<stop offset="0.635005" stop-color="#B46D68" stop-opacity="0"/>
<stop offset="0.900759" stop-color="#B46D68"/>
</radialGradient>
<linearGradient id="paint7_linear_20020_6772" x1="21.5536" y1="17.183" x2="20.1716" y2="17.5048" gradientUnits="userSpaceOnUse">
<stop stop-color="#AD6B5B"/>
<stop offset="1" stop-color="#AD6B5B" stop-opacity="0"/>
</linearGradient>
<radialGradient id="paint8_radial_20020_6772" cx="0" cy="0" r="1" gradientUnits="userSpaceOnUse" gradientTransform="translate(24.3109 20.6332) rotate(-105.244) scale(7.43863 1.61686)">
<stop stop-color="#DBA39E"/>
<stop offset="1" stop-color="#C88982"/>
</radialGradient>
<radialGradient id="paint9_radial_20020_6772" cx="0" cy="0" r="1" gradientUnits="userSpaceOnUse" gradientTransform="translate(24.2926 13.4875) rotate(98.8826) scale(7.2324 4.46687)">
<stop offset="0.871517" stop-color="#BD8090" stop-opacity="0"/>
<stop offset="0.996372" stop-color="#BD8090"/>
</radialGradient>
<linearGradient id="paint10_linear_20020_6772" x1="9.58594" y1="22.5025" x2="23.6331" y2="11.9292" gradientUnits="userSpaceOnUse">
<stop stop-color="#EFB8A5"/>
<stop offset="1" stop-color="#FFD3BA"/>
</linearGradient>
<radialGradient id="paint11_radial_20020_6772" cx="0" cy="0" r="1" gradientUnits="userSpaceOnUse" gradientTransform="translate(2.99841 11.2495) rotate(24.8142) scale(6.40373 9.01085)">
<stop stop-color="#F4BDA1"/>
<stop offset="1" stop-color="#F4BDA1" stop-opacity="0"/>
</radialGradient>
</defs>
</svg>

<svg width="32" height="32" fill="none" xmlns="http://www.w3.org/2000/svg"><path d="M15.116 17.828a2.19 2.19 0 0 1-1.738-2.552l.94-5.121 4.268.8-.942 5.12a2.168 2.168 0 0 1-2.528 1.753Z" fill="url(#a)"/><path d="M15.116 17.828a2.19 2.19 0 0 1-1.738-2.552l.94-5.121 4.268.8-.942 5.12a2.168 2.168 0 0 1-2.528 1.753Z" fill="url(#b)"/><path d="M15.116 17.828a2.19 2.19 0 0 1-1.738-2.552l.94-5.121 4.268.8-.942 5.12a2.168 2.168 0 0 1-2.528 1.753Z" fill="url(#c)"/><path d="M15.116 17.828a2.19 2.19 0 0 1-1.738-2.552l.94-5.121 4.268.8-.942 5.12a2.168 2.168 0 0 1-2.528 1.753Z" fill="url(#d)"/><path d="M18.875 19.884a2.193 2.193 0 0 1-1.962-2.399l.52-5.185 4.357.437-.52 5.185a2.186 2.186 0 0 1-2.395 1.962Z" fill="url(#e)"/><path d="M18.875 19.884a2.193 2.193 0 0 1-1.962-2.399l.52-5.185 4.357.437-.52 5.185a2.186 2.186 0 0 1-2.395 1.962Z" fill="url(#f)"/><path d="M18.875 19.884a2.193 2.193 0 0 1-1.962-2.399l.52-5.185 4.357.437-.52 5.185a2.186 2.186 0 0 1-2.395 1.962Z" fill="url(#g)"/><path d="M18.875 19.884a2.193 2.193 0 0 1-1.962-2.399l.52-5.185 4.357.437-.52 5.185a2.186 2.186 0 0 1-2.395 1.962Z" fill="url(#h)"/><path d="M24.034 20.596a2.19 2.19 0 0 1-2.552-1.753l-1.127-6.012 4.479.088.953 5.124a2.193 2.193 0 0 1-1.753 2.553Z" fill="url(#i)"/><path d="M24.034 20.596a2.19 2.19 0 0 1-2.552-1.753l-1.127-6.012 4.479.088.953 5.124a2.193 2.193 0 0 1-1.753 2.553Z" fill="url(#j)"/><g filter="url(#k)"><path d="M12.766 16.73c0-1.7.886-2.574 2.398-3.078.977-.211 4.531-.149 4.531-.149 1.133 0 1.78.448 2.438 1.055l3.758 3.21c.984.907 2.484 1.12 3.492.079 1.053-1.085.937-2.734-.344-3.844l-5.765-4.987c-1.3-1.17-1.922-1.818-4.31-1.818H9.993c-4.828-.029-7.777 2.93-7.777 6.805 0 2.344 2.082 4.807 3.684 6.469l1.718 1.633c1.362 1.207 3.133 2.226 4.977 2.226h1.828c.59 0 1.052-.058 1.79.383.904.543 2.33.42 3.077-.328.652-.652.85-1.587.504-2.444-.601-1.497-2.262-2.126-3.879-2.439l-1.125-.156c-1.445-.102-2.023-1.734-2.023-2.616Z" fill="url(#l)"/></g><path d="M12.766 16.73c0-1.7.886-2.574 2.398-3.078.977-.211 4.531-.149 4.531-.149 1.133 0 1.78.448 2.438 1.055l3.758 3.21c.984.907 2.484 1.12 3.492.079 1.053-1.085.937-2.734-.344-3.844l-5.765-4.987c-1.3-1.17-1.922-1.818-4.31-1.818H9.993c-4.828-.029-7.777 2.93-7.777 6.805 0 2.344 2.082 4.807 3.684 6.469l1.718 1.633c1.362 1.207 3.133 2.226 4.977 2.226h1.828c.59 0 1.052-.058 1.79.383.904.543 2.33.42 3.077-.328.652-.652.85-1.587.504-2.444-.601-1.497-2.262-2.126-3.879-2.439l-1.125-.156c-1.445-.102-2.023-1.734-2.023-2.616Z" fill="url(#m)"/><g filter="url(#n)"><path d="m21.836 10.025 6.408 5.047a.821.821 0 0 1-.994 1.307l-5.917-4.337a2 2 0 0 0-1.424-.372l-4.645.566a4 4 0 0 0-3.517 3.97v.561a4 4 0 0 0 .962 2.601l.106.125a3 3 0 0 0 1.947 1.03l1.77.198a3 3 0 0 1 1.727.8l.789.744a.682.682 0 0 1-.905 1.02l-.391-.328a3 3 0 0 0-1.923-.697h-2.002a4 4 0 0 1-2.725-1.071L7.54 17.874a4 4 0 0 1-1.171-3.835l.18-.772a5 5 0 0 1 4.722-3.864l7.972-.234a4 4 0 0 1 2.593.856Z" fill="#FFE5CB"/></g><defs><radialGradient id="a" cx="0" cy="0" r="1" gradientUnits="userSpaceOnUse" gradientTransform="rotate(-72.957 19.073 -1.982) scale(3.96133 3.0891)"><stop stop-color="#BC7C7C"/><stop offset="1" stop-color="#B26B63"/></radialGradient><radialGradient id="c" cx="0" cy="0" r="1" gradientUnits="userSpaceOnUse" gradientTransform="matrix(.75091 4.71875 -3.94577 .6279 15.213 13.613)"><stop offset=".69" stop-color="#B7798C" stop-opacity="0"/><stop offset=".909" stop-color="#B7798C"/></radialGradient><radialGradient id="e" cx="0" cy="0" r="1" gradientUnits="userSpaceOnUse" gradientTransform="rotate(-82.942 20.707 -.747) scale(8.25115 2.21235)"><stop stop-color="#D79F98"/><stop offset="1" stop-color="#C78980"/></radialGradient><radialGradient id="f" cx="0" cy="0" r="1" gradientUnits="userSpaceOnUse" gradientTransform="rotate(96.831 4.04 15.444) scale(6.87836 5.87923)"><stop offset=".825" stop-color="#B57B8F" stop-opacity="0"/><stop offset=".965" stop-color="#B57B8F"/></radialGradient><radialGradient id="g" cx="0" cy="0" r="1" gradientUnits="userSpaceOnUse" gradientTransform="rotate(-56.092 26.32 -5.708) scale(7.22011 7.09831)"><stop offset=".635" stop-color="#B46D68" stop-opacity="0"/><stop offset=".901" stop-color="#B46D68"/></radialGradient><radialGradient id="i" cx="0" cy="0" r="1" gradientUnits="userSpaceOnUse" gradientTransform="matrix(-1.95584 -7.1769 1.55997 -.42512 24.31 20.633)"><stop stop-color="#DBA39E"/><stop offset="1" stop-color="#C88982"/></radialGradient><radialGradient id="j" cx="0" cy="0" r="1" gradientUnits="userSpaceOnUse" gradientTransform="matrix(-1.11676 7.14566 -4.4133 -.68973 24.293 13.488)"><stop offset=".872" stop-color="#BD8090" stop-opacity="0"/><stop offset=".996" stop-color="#BD8090"/></radialGradient><radialGradient id="m" cx="0" cy="0" r="1" gradientUnits="userSpaceOnUse" gradientTransform="matrix(5.8125 2.6875 -3.78165 8.17891 2.998 11.25)"><stop stop-color="#F4BDA1"/><stop offset="1" stop-color="#F4BDA1" stop-opacity="0"/></radialGradient><linearGradient id="b" x1="17.255" y1="17.532" x2="15.963" y2="17.423" gradientUnits="userSpaceOnUse"><stop stop-color="#AD685D"/><stop offset="1" stop-color="#AD685D" stop-opacity="0"/></linearGradient><linearGradient id="d" x1="13.24" y1="15.306" x2="14.159" y2="15.481" gradientUnits="userSpaceOnUse"><stop stop-color="#D59381"/><stop offset="1" stop-color="#D59381" stop-opacity="0"/></linearGradient><linearGradient id="h" x1="21.554" y1="17.183" x2="20.172" y2="17.505" gradientUnits="userSpaceOnUse"><stop stop-color="#AD6B5B"/><stop offset="1" stop-color="#AD6B5B" stop-opacity="0"/></linearGradient><linearGradient id="l" x1="9.586" y1="22.503" x2="23.633" y2="11.929" gradientUnits="userSpaceOnUse"><stop stop-color="#EFB8A5"/><stop offset="1" stop-color="#FFD3BA"/></linearGradient><filter id="k" x="2.215" y="5.948" width="29.13" height="19.251" filterUnits="userSpaceOnUse" color-interpolation-filters="sRGB"><feFlood flood-opacity="0" result="BackgroundImageFix"/><feBlend in="SourceGraphic" in2="BackgroundImageFix" result="shape"/><feColorMatrix in="SourceAlpha" values="0 0 0 0 0 0 0 0 0 0 0 0 0 0 0 0 0 0 127 0" result="hardAlpha"/><feOffset dx="1.25" dy="-1.25"/><feGaussianBlur stdDeviation=".75"/><feComposite in2="hardAlpha" operator="arithmetic" k2="-1" k3="1"/><feColorMatrix values="0 0 0 0 0.870588 0 0 0 0 0.639216 0 0 0 0 0.615686 0 0 0 1 0"/><feBlend in2="shape" result="effect1_innerShadow_20020_6772"/><feColorMatrix in="SourceAlpha" values="0 0 0 0 0 0 0 0 0 0 0 0 0 0 0 0 0 0 127 0" result="hardAlpha"/><feOffset dy="-.4"/><feGaussianBlur stdDeviation=".625"/><feComposite in2="hardAlpha" operator="arithmetic" k2="-1" k3="1"/><feColorMatrix values="0 0 0 0 0.701961 0 0 0 0 0.458824 0 0 0 0 0.521569 0 0 0 1 0"/><feBlend in2="effect1_innerShadow_20020_6772" result="effect2_innerShadow_20020_6772"/><feColorMatrix in="SourceAlpha" values="0 0 0 0 0 0 0 0 0 0 0 0 0 0 0 0 0 0 127 0" result="hardAlpha"/><feOffset dx=".15" dy=".15"/><feGaussianBlur stdDeviation=".25"/><feComposite in2="hardAlpha" operator="arithmetic" k2="-1" k3="1"/><feColorMatrix values="0 0 0 0 0.878431 0 0 0 0 0.717647 0 0 0 0 0.615686 0 0 0 1 0"/><feBlend in2="effect2_innerShadow_20020_6772" result="effect3_innerShadow_20020_6772"/></filter><filter id="n" x="3.764" y="6.667" width="27.292" height="19.276" filterUnits="userSpaceOnUse" color-interpolation-filters="sRGB"><feFlood flood-opacity="0" result="BackgroundImageFix"/><feBlend in="SourceGraphic" in2="BackgroundImageFix" result="shape"/><feGaussianBlur stdDeviation="1.25" result="effect1_foregroundBlur_20020_6772"/></filter></defs></svg>
